dhis-2/dhis-support/dhis-support-system/src/main/resources/SVGs/neurology_outline.svg

<svg width="48" height="48" viewBox="0 0 48 48" fill="none" xmlns="http://www.w3.org/2000/svg">
<path fill-rule="evenodd" clip-rule="evenodd" d="M30.0407 4.02734C27.0477 4.02734 24.5267 6.03382 23.7378 8.77338C22.9478 6.03592 20.4288 4.03134 17.4378 4.03124C13.8129 4.03134 10.8749 6.96941 10.8749 10.594C10.8759 10.794 10.8869 10.994 10.9059 11.193C10.7499 11.181 10.5939 11.157 10.4379 11.156C6.81306 11.156 3.875 14.0939 3.875 17.7189C3.8777 19.4799 4.59449 21.1528 5.83978 22.3788C4.60159 23.3488 3.8773 24.8328 3.875 26.4058C3.8774 28.6437 5.33148 30.6217 7.46676 31.2907C7.36766 31.7387 7.31596 32.1967 7.31246 32.6557C7.31286 35.2187 8.81794 37.5076 11.1149 38.5776C11.8899 41.4116 14.4669 43.4066 17.4378 43.4075C20.4308 43.4075 22.9518 41.4016 23.7398 38.6616C24.5297 41.3996 27.0487 43.4036 30.0407 43.4036C33.0106 43.4026 35.5876 41.4076 36.3626 38.5736C38.6606 37.5036 40.1655 35.2147 40.1655 32.6517C40.1615 32.1927 40.1105 31.7357 40.0116 31.2867C42.1465 30.6177 43.6005 28.6397 43.6035 26.4018C43.6005 24.8298 42.8765 23.3448 41.6385 22.3748C42.8835 21.1488 43.6005 19.4759 43.6035 17.7149C43.6035 14.0899 40.6645 11.152 37.0406 11.152C36.8836 11.153 36.7286 11.178 36.5716 11.189C36.5916 10.99 36.6016 10.79 36.6036 10.59C36.6036 6.96551 33.6646 4.02734 30.0407 4.02734ZM30.0407 4.54304C33.3806 4.54274 36.0876 7.2501 36.0876 10.59C36.0846 10.817 36.0686 11.044 36.0406 11.27C36.0226 11.432 35.9976 11.5939 35.9666 11.7539C35.8246 12.4889 35.5466 13.1909 35.1476 13.8239C34.8156 14.3409 35.2406 14.5329 35.4626 14.2849C35.9856 13.5139 36.3386 12.6409 36.4976 11.7229C36.6786 11.7049 36.8586 11.6729 37.0406 11.6719C40.3775 11.6719 43.0835 14.3769 43.0835 17.7149C43.0805 19.3699 42.3945 20.9398 41.2085 22.0718C40.8095 21.8188 40.3775 21.6228 39.9255 21.4878C39.5316 21.3928 39.2126 21.7488 40.1555 22.1018C40.3835 22.1918 40.6035 22.2998 40.8135 22.4258C40.8195 22.4288 40.8245 22.4318 40.8295 22.4358C40.9795 22.5238 41.1245 22.6218 41.2635 22.7268H41.2655C42.4165 23.5978 43.0935 24.9578 43.0955 26.4018C43.0955 28.9517 41.0285 31.0197 38.4786 31.0197C37.3486 31.0167 36.2586 30.6007 35.4156 29.8497C34.8366 29.2827 34.4446 29.5897 34.7616 29.9257C35.7276 30.9467 37.0716 31.5257 38.4786 31.5267C38.8296 31.5247 39.1796 31.4877 39.5226 31.4137C39.6106 31.8207 39.6556 32.2357 39.6576 32.6517C39.6556 34.8747 38.4266 36.8846 36.5016 37.9386L36.5266 37.7886C36.5756 37.4756 36.6006 37.1586 36.6036 36.8416C36.6006 36.1766 36.4976 35.5166 36.2966 34.8827C36.1096 34.3527 35.6936 34.2487 36.0036 35.8276C36.0626 36.1626 36.0936 36.5016 36.0956 36.8416C36.0956 40.1856 33.3846 42.8966 30.0407 42.8956C26.7437 42.8966 24.0677 40.2596 23.9937 36.9796C23.9947 36.9346 23.9997 36.8906 23.9997 36.8456L23.9937 36.7436H23.9957V36.2006L23.9997 27.0308C23.9987 27.0078 23.9877 26.9998 23.9857 26.9788C23.9787 26.8588 23.9537 26.7638 23.9138 26.6988C23.8428 26.5838 23.7368 26.5568 23.6458 26.6148C23.6138 26.6358 23.5858 26.6698 23.5608 26.7128C23.5248 26.7738 23.5028 26.8598 23.4938 26.9668C23.4918 26.9908 23.4788 27.0008 23.4788 27.0268L23.4818 36.2046V36.7396H23.4838C23.4818 36.7736 23.4798 36.8076 23.4788 36.8416C23.4788 36.8886 23.4848 36.9336 23.4858 36.9796C23.4138 40.2616 20.7358 42.9006 17.4378 42.8996C14.0929 42.9006 11.3829 40.1896 11.3829 36.8456C11.3849 36.5056 11.4159 36.1666 11.4749 35.8316C11.7849 34.2517 11.3679 34.3567 11.1819 34.8867C10.9809 35.5197 10.8769 36.1806 10.8749 36.8456C10.8769 37.1626 10.9029 37.4786 10.9509 37.7926L10.9769 37.9426C9.05134 36.8886 7.82205 34.8787 7.82025 32.6557C7.82245 32.2397 7.86765 31.8247 7.95505 31.4177C8.29854 31.4907 8.64864 31.5287 8.99994 31.5307C10.4059 31.5297 11.7499 30.9507 12.7169 29.9297C13.0339 29.5937 12.6419 29.2867 12.0619 29.8537C11.2189 30.6047 10.1299 31.0207 8.99994 31.0227C6.44987 31.0237 4.38259 28.9557 4.38279 26.4058C4.38439 24.9618 5.06159 23.6018 6.21287 22.7298H6.21477C6.35387 22.6258 6.49837 22.5278 6.64837 22.4388C6.65367 22.4358 6.65877 22.4328 6.66407 22.4298C6.87446 22.3038 7.09456 22.1958 7.32226 22.1048C8.26505 21.7528 7.94635 21.3968 7.55265 21.4918C7.10006 21.6268 6.66826 21.8228 6.26947 22.0758C5.08338 20.9438 4.39699 19.3739 4.39449 17.7189C4.39449 14.3809 7.10006 11.6759 10.4379 11.6759C10.6199 11.6769 10.7989 11.7089 10.9799 11.7269C11.1399 12.6449 11.4929 13.5179 12.0159 14.2889C12.2379 14.5369 12.6629 14.3449 12.3299 13.8279C11.9319 13.1949 11.6539 12.4929 11.5119 11.7579C11.4799 11.5969 11.4559 11.436 11.4379 11.273C11.4089 11.048 11.3929 10.821 11.3909 10.594C11.3899 7.254 14.0979 4.54664 17.4378 4.54694C20.7568 4.54664 23.4478 7.2217 23.4798 10.533C23.4798 10.552 23.4788 10.571 23.4788 10.59C23.4788 10.602 23.4818 10.614 23.4818 10.627C23.4718 11.9269 23.0458 13.1889 22.2618 14.2269C21.8528 14.7039 22.3228 14.9489 22.5408 14.7149C23.1098 14.0099 23.5018 13.1949 23.7398 12.3339C23.9787 13.1929 24.3687 14.0079 24.9377 14.7109C25.1557 14.9449 25.6247 14.6999 25.2167 14.2229C24.4337 13.1859 24.0087 11.9249 23.9977 10.627C23.9977 10.616 23.9997 10.605 23.9997 10.594C23.9997 10.573 23.9957 10.554 23.9957 10.533C24.0257 7.2198 26.7197 4.54274 30.0407 4.54304ZM33.5266 12.6389C33.4496 12.6249 33.3286 12.6529 33.1636 12.7379C32.3926 13.2739 31.9326 14.1529 31.9317 15.0919C31.9317 16.6779 33.2176 17.9649 34.8046 17.9649C36.3916 17.9659 37.6796 16.6789 37.6796 15.0919C37.6796 14.9309 37.6666 14.7709 37.6406 14.6129C37.6336 13.9449 37.0676 14.1219 37.1556 15.1049C37.1476 16.3979 36.0976 17.4419 34.8046 17.4409C33.5066 17.4409 32.4556 16.3889 32.4546 15.0919C32.4556 14.4649 32.7066 13.8649 33.1516 13.4239C33.6116 13.0949 33.7596 12.6809 33.5266 12.6389ZM13.9509 12.6429C13.7179 12.6839 13.8659 13.0979 14.3259 13.4279C14.7719 13.8689 15.0229 14.4689 15.0229 15.0959C15.0229 16.3929 13.9709 17.4449 12.6739 17.4449C11.3809 17.4459 10.3299 16.4019 10.3219 15.1089C10.4109 14.1249 9.84453 13.9489 9.83783 14.6169C9.81143 14.7749 9.79843 14.9349 9.79873 15.0959C9.79883 16.6829 11.0859 17.9699 12.6739 17.9689C14.2609 17.9689 15.5469 16.6819 15.5469 15.0959C15.5449 14.1569 15.0849 13.2779 14.3139 12.7419C14.1499 12.6569 14.0289 12.6289 13.9509 12.6429ZM28.2397 17.7229C27.9967 17.7459 28.0577 18.1559 28.7007 18.5229C29.7567 19.2689 30.0127 20.7268 29.2727 21.7868C28.5307 22.8508 27.0687 23.1138 26.0037 22.3728C25.4897 22.0138 25.1397 21.4648 25.0327 20.8478C25.0227 20.0938 24.5727 19.7098 24.4767 20.4448C24.4757 21.3838 24.9337 22.2648 25.7027 22.8028C27.0047 23.7098 28.7957 23.3898 29.7027 22.0878C30.6107 20.7858 30.2927 18.9939 28.9897 18.0859C28.8587 17.9939 28.7187 17.9129 28.5737 17.8439C28.4357 17.7499 28.3207 17.7149 28.2397 17.7229ZM19.2378 17.7269C19.1568 17.7189 19.0418 17.7529 18.9038 17.8479C18.7588 17.9159 18.6198 17.9979 18.4878 18.0899C17.1858 18.9969 16.8668 20.7898 17.7748 22.0918C18.6828 23.3938 20.4728 23.7138 21.7748 22.8068C22.5448 22.2688 23.0028 21.3878 23.0018 20.4488C22.9048 19.7138 22.4548 20.0968 22.4448 20.8518C22.3378 21.4688 21.9878 22.0178 21.4748 22.3768C20.4098 23.1178 18.9468 22.8548 18.2048 21.7908C17.4648 20.7308 17.7208 19.2729 18.7768 18.5269C19.4208 18.1599 19.4808 17.7499 19.2378 17.7269ZM32.0226 25.8958C29.9117 25.8968 28.1997 27.6087 28.2007 29.7207C28.2007 31.8317 29.9127 33.5427 32.0226 33.5427H32.0247C32.5756 33.5717 32.6336 33.0517 31.8996 33.0267C30.1217 32.9607 28.7137 31.4997 28.7127 29.7207C28.7117 27.8917 30.1937 26.4088 32.0226 26.4078C32.6886 26.4098 33.3386 26.6118 33.8886 26.9878C34.3876 27.3778 34.6546 27.0188 34.2886 26.6458C33.6326 26.1608 32.8386 25.8978 32.0226 25.8958ZM15.4549 25.8998C14.6389 25.9018 13.8449 26.1648 13.1889 26.6498C12.8239 27.0228 13.0899 27.3808 13.5899 26.9918C14.1389 26.6158 14.7889 26.4138 15.4549 26.4118C17.2838 26.4128 18.7658 27.8957 18.7658 29.7247C18.7638 31.5037 17.3568 32.9647 15.5779 33.0307C14.8439 33.0547 14.9019 33.5757 15.4529 33.5467H15.4549C17.5658 33.5467 19.2768 31.8357 19.2768 29.7247C19.2778 27.6127 17.5668 25.8998 15.4549 25.8998Z" fill="#333333"/>
</svg>

<?xml version="1.0" encoding="UTF-8" standalone="no"?>
<!-- Created with Inkscape (http://www.inkscape.org/) -->
<svg id="svg8" xmlns:rdf="http://www.w3.org/1999/02/22-rdf-syntax-ns#" xmlns="http://www.w3.org/2000/svg" xmlns:osb="http://www.openswatchbook.org/uri/2009/osb" height="48" width="48" version="1.1" xmlns:cc="http://creativecommons.org/ns#" viewBox="0 0 12.7 12.7" xmlns:dc="http://purl.org/dc/elements/1.1/">
 <title id="title4753">UIO-icon</title>
 <metadata id="metadata5">
  <rdf:RDF>
   <cc:Work rdf:about="">
    <dc:format>image/svg+xml</dc:format>
    <dc:type rdf:resource="http://purl.org/dc/dcmitype/StillImage"/>
    <dc:title>UIO-icon</dc:title>
    <dc:creator>
     <cc:Agent>
      <dc:title>Joaquín Urbano</dc:title>
     </cc:Agent>
    </dc:creator>
    <dc:rights>
     <cc:Agent>
      <dc:title>GPL</dc:title>
     </cc:Agent>
    </dc:rights>
   </cc:Work>
  </rdf:RDF>
 </metadata>
 <g id="layer1" transform="translate(0,-284.3)">
  <path id="circle905" d="m30.041 4.0273c-2.993 0-5.514 2.0065-6.303 4.7461-0.79-2.7375-3.309-4.7421-6.3-4.7422-3.625 0.0001-6.563 2.9382-6.563 6.5628 0.001 0.2 0.012 0.4 0.031 0.599-0.156-0.012-0.312-0.036-0.468-0.037-3.6249 0-6.563 2.938-6.563 6.563 0.0027 1.761 0.7195 3.434 1.9648 4.66-1.2382 0.97-1.9625 2.454-1.9648 4.027 0.0024 2.238 1.4565 4.216 3.5918 4.885-0.0991 0.448-0.1508 0.906-0.1543 1.365 0.0004 2.563 1.5055 4.852 3.8025 5.922 0.775 2.834 3.352 4.829 6.323 4.83 2.993 0 5.514-2.006 6.302-4.746 0.79 2.738 3.309 4.742 6.301 4.742 2.97-0.001 5.547-1.996 6.322-4.83 2.298-1.07 3.803-3.359 3.803-5.922-0.004-0.459-0.055-0.916-0.154-1.365 2.135-0.669 3.589-2.647 3.592-4.885-0.003-1.572-0.727-3.057-1.965-4.027 1.245-1.226 1.962-2.899 1.965-4.66 0-3.625-2.939-6.563-6.563-6.563-0.157 0.001-0.312 0.026-0.469 0.037 0.02-0.199 0.03-0.399 0.032-0.599 0-3.6245-2.939-6.5627-6.563-6.5627zm0 0.5157c3.34-0.0003 6.047 2.7071 6.047 6.047-0.003 0.227-0.019 0.454-0.047 0.68-0.018 0.162-0.043 0.324-0.074 0.484-0.142 0.735-0.42 1.437-0.819 2.07-0.332 0.517 0.093 0.709 0.315 0.461 0.523-0.771 0.876-1.644 1.035-2.562 0.181-0.018 0.361-0.05 0.543-0.051 3.337 0 6.043 2.705 6.043 6.043-0.003 1.655-0.689 3.225-1.875 4.357-0.399-0.253-0.831-0.449-1.283-0.584-0.394-0.095-0.713 0.261 0.23 0.614 0.228 0.09 0.448 0.198 0.658 0.324 0.006 0.003 0.011 0.006 0.016 0.01 0.15 0.088 0.295 0.186 0.434 0.291h0.002c1.151 0.871 1.828 2.231 1.83 3.675 0 2.55-2.067 4.618-4.617 4.618-1.13-0.003-2.22-0.419-3.063-1.17-0.579-0.567-0.971-0.26-0.654 0.076 0.966 1.021 2.31 1.6 3.717 1.601 0.351-0.002 0.701-0.039 1.044-0.113 0.088 0.407 0.133 0.822 0.135 1.238-0.002 2.223-1.231 4.233-3.156 5.287l0.025-0.15c0.049-0.313 0.074-0.63 0.077-0.947-0.003-0.665-0.106-1.325-0.307-1.959-0.187-0.53-0.603-0.634-0.293 0.945 0.059 0.335 0.09 0.674 0.092 1.014 0 3.344-2.711 6.055-6.055 6.054-3.297 0.001-5.973-2.636-6.047-5.916 0.001-0.045 0.006-0.089 0.006-0.134l-0.006-0.102h0.002v-0.543l0.004-9.17c-0.001-0.023-0.012-0.031-0.014-0.052-0.007-0.12-0.032-0.215-0.072-0.28-0.071-0.115-0.177-0.142-0.268-0.084-0.032 0.021-0.06 0.055-0.085 0.098-0.036 0.061-0.058 0.147-0.067 0.254-0.002 0.024-0.015 0.034-0.015 0.06l0.003 9.178v0.535h0.002c-0.002 0.034-0.004 0.068-0.005 0.102 0 0.047 0.006 0.092 0.007 0.138-0.072 3.282-2.75 5.921-6.048 5.92-3.345 0.001-6.055-2.71-6.055-6.054 0.002-0.34 0.033-0.679 0.092-1.014 0.31-1.58-0.107-1.475-0.293-0.945-0.201 0.633-0.305 1.294-0.307 1.959 0.002 0.317 0.028 0.633 0.076 0.947l0.026 0.15c-1.9256-1.054-3.1549-3.064-3.1567-5.287 0.0022-0.416 0.0474-0.831 0.1348-1.238 0.3435 0.073 0.6936 0.111 1.0449 0.113 1.406-0.001 2.75-0.58 3.717-1.601 0.317-0.336-0.075-0.643-0.655-0.076-0.843 0.751-1.932 1.167-3.062 1.169-2.5501 0.001-4.6174-2.067-4.6172-4.617 0.0016-1.444 0.6788-2.804 1.8301-3.676h0.0019c0.1391-0.104 0.2836-0.202 0.4336-0.291 0.0053-0.003 0.0104-0.006 0.0157-0.009 0.2104-0.126 0.4305-0.234 0.6582-0.325 0.9428-0.352 0.6241-0.708 0.2304-0.613-0.4526 0.135-0.8844 0.331-1.2832 0.584-1.1861-1.132-1.8725-2.702-1.875-4.357 0-3.338 2.7056-6.043 6.0435-6.043 0.182 0.001 0.361 0.033 0.542 0.051 0.16 0.918 0.513 1.791 1.036 2.562 0.222 0.248 0.647 0.056 0.314-0.461-0.398-0.633-0.676-1.335-0.818-2.07-0.032-0.161-0.056-0.322-0.074-0.485-0.029-0.225-0.045-0.452-0.047-0.679-0.001-3.34 2.707-6.0474 6.047-6.0471 3.319-0.0003 6.01 2.6748 6.042 5.9861 0 0.019-0.001 0.038-0.001 0.057 0 0.012 0.003 0.024 0.003 0.037-0.01 1.3-0.436 2.562-1.22 3.6-0.409 0.477 0.061 0.722 0.279 0.488 0.569-0.705 0.961-1.52 1.199-2.381 0.239 0.859 0.629 1.674 1.198 2.377 0.218 0.234 0.687-0.011 0.279-0.488-0.783-1.037-1.208-2.298-1.219-3.596 0-0.011 0.002-0.022 0.002-0.033 0-0.021-0.004-0.04-0.004-0.061 0.03-3.3132 2.724-5.9903 6.045-5.99zm3.486 8.096c-0.077-0.014-0.198 0.014-0.363 0.099-0.771 0.536-1.231 1.415-1.232 2.354 0 1.586 1.286 2.873 2.873 2.873 1.587 0.001 2.875-1.286 2.875-2.873 0-0.161-0.013-0.321-0.039-0.479-0.007-0.668-0.573-0.491-0.485 0.492-0.008 1.293-1.058 2.337-2.351 2.336-1.298 0-2.349-1.052-2.35-2.349 0.001-0.627 0.252-1.227 0.697-1.668 0.46-0.329 0.608-0.743 0.375-0.785zm-19.576 0.004c-0.233 0.041-0.085 0.455 0.375 0.785 0.446 0.441 0.697 1.041 0.697 1.668 0 1.297-1.052 2.349-2.349 2.349-1.293 0.001-2.344-1.043-2.352-2.336 0.089-0.984-0.4774-1.16-0.4841-0.492-0.0264 0.158-0.0394 0.318-0.0391 0.479 0.0001 1.587 1.2872 2.874 2.8752 2.873 1.587 0 2.873-1.287 2.873-2.873-0.002-0.939-0.462-1.818-1.233-2.354-0.164-0.085-0.285-0.113-0.363-0.099zm14.289 5.08c-0.243 0.023-0.182 0.433 0.461 0.8 1.056 0.746 1.312 2.204 0.572 3.264-0.742 1.064-2.204 1.327-3.269 0.586-0.514-0.359-0.864-0.908-0.971-1.525-0.01-0.754-0.46-1.138-0.556-0.403-0.001 0.939 0.457 1.82 1.226 2.358 1.302 0.907 3.093 0.587 4-0.715 0.908-1.302 0.59-3.094-0.713-4.002-0.131-0.092-0.271-0.173-0.416-0.242-0.138-0.094-0.253-0.129-0.334-0.121zm-9.002 0.004c-0.081-0.008-0.196 0.026-0.334 0.121-0.145 0.068-0.284 0.15-0.416 0.242-1.302 0.907-1.621 2.7-0.713 4.002s2.698 1.622 4 0.715c0.77-0.538 1.228-1.419 1.227-2.358-0.097-0.735-0.547-0.352-0.557 0.403-0.107 0.617-0.457 1.166-0.97 1.525-1.065 0.741-2.528 0.478-3.27-0.586-0.74-1.06-0.484-2.518 0.572-3.264 0.644-0.367 0.704-0.777 0.461-0.8zm12.785 8.169c-2.111 0.001-3.823 1.713-3.822 3.825 0 2.111 1.712 3.822 3.822 3.822h0.002c0.551 0.029 0.609-0.491-0.125-0.516-1.778-0.066-3.186-1.527-3.187-3.306-0.001-1.829 1.481-3.312 3.31-3.313 0.666 0.002 1.316 0.204 1.866 0.58 0.499 0.39 0.766 0.031 0.4-0.342-0.656-0.485-1.45-0.748-2.266-0.75zm-16.568 0.004c-0.816 0.002-1.61 0.265-2.266 0.75-0.365 0.373-0.099 0.731 0.401 0.342 0.549-0.376 1.199-0.578 1.865-0.58 1.829 0.001 3.311 1.484 3.311 3.313-0.002 1.779-1.409 3.24-3.188 3.306-0.734 0.024-0.676 0.545-0.125 0.516h0.002c2.111 0 3.822-1.711 3.822-3.822 0.001-2.112-1.71-3.825-3.822-3.825z" fill-rule="evenodd" transform="matrix(.26458 0 0 .26458 0 284.3)" fill="#333"/>
 </g>
</svg>
